X: 20543
T: I'M NOT TO BE STINTED IN LOVE.
T: FROM THE INTERLUDE OF "THE LOVE WRANGLE."
Q: "Moderagely quick."
%R: air, jig
B: W. Hamilton "Universal Tune-Book" Vol. 2 Glasgow 1846 p.54 #3
S: http://s3-eu-west-1.amazonaws.com/itma.dl.printmaterial/book_pdfs/hamiltonvol2web.pdf
Z: 2016 John Chambers <jc:trillian.mit.edu>
M: 6/8
L: 1/8
K: G
% - - - - - - - - - - - - - - - - - - - - - - - - -
D |\
B>AB c>Bc | d3 g3 | d>cB A>GA | B3 G2D |\
B>AB c>Bc | d3 g3 | d>cB A>GA | B3 GBc |\
dBG dBG | d3 =f3 |
e^fg dcB | BAz zBc |\
dBG dBG | d3 g3 | fed Ade | (f2d d2)D |\
B>AB c>Bc | d3 g3 | dcB AGA |
BGz z2D |\
B>AB c>Bc | d3 g3 | dcB cBA | g2g (ef)g |\
dBd cBA | g2g efg | d>cB A>GA | B3 G2 |]
% - - - - - - - - - - - - - - - - - - - - - - - - -

%%sep 1 1 500
%%sep 1 1 500

